X:103
T:score19
L:1/4
Q:1/4=96
M:1/4
I:linebreak $
K:Eb
 (B, |[M:3/4] E2 B, | G,2) (3(G,/A,/B,/ | B, C B, | B, A,) (C |$ F2 E | D2) (3(B,/C/D/ | %7
 E C B,/>G,/ |[M:2/4] G, F,) |] %9
